frontend/public/svg/hand gestures/swipe-right.svg

<svg width="115" height="136" viewBox="0 0 115 136" fill="none" xmlns="http://www.w3.org/2000/svg">
<g clip-path="url(#clip0)">
<path d="M110.403 85.2461C108.943 84.1559 107.34 83.2712 105.639 82.6174C99.5644 80.2546 93.8844 79.8326 88.2708 81.3264C87.9255 81.4006 87.5737 81.44 87.2206 81.4439L86.8924 81.4623C87.3368 80.6051 87.7726 79.7775 88.1992 78.9682C89.2795 76.9198 90.2995 74.9855 91.2223 73.006L92.5678 70.1267C97.9215 58.6677 103.458 46.8182 107.649 34.63C108.844 31.156 109.344 28.2208 109.18 25.6559C108.97 22.3847 107.387 19.7751 104.834 18.4972C102.24 17.1983 99.0144 17.5186 96.2033 19.3538C94.7107 20.2203 93.3777 21.3354 92.2613 22.6511L91.3733 23.8227C88.5464 27.401 85.9381 31.1465 83.5628 35.0389C81.1088 39.2512 78.8517 43.6678 76.6713 47.9386C75.6212 49.9929 74.571 52.0473 73.4966 54.0878C73.3371 54.3439 73.1402 54.5746 72.9124 54.7724C72.8823 54.8026 72.8508 54.832 72.8206 54.8616C68.156 48.3638 65.0993 47.6459 57.1267 51.1284C55.6999 47.2744 52.7862 44.9339 48.4629 44.1673C44.2676 43.423 40.5319 44.5295 37.0533 47.548C36.9818 47.4745 36.9163 47.4089 36.8565 47.3478C36.6984 47.2013 36.5536 47.041 36.4239 46.8688C33.8701 43.1276 30.402 40.9545 26.6589 40.753C23.0045 40.56 19.4516 42.2724 16.6287 45.5823C14.3111 48.3527 12.3384 51.3941 10.7533 54.6397C6.52586 63.1065 4.22128 72.3694 2.18729 80.5395C0.784907 86.3658 0.292027 92.3732 0.726237 98.3499C1.30119 107.762 5.28212 115.997 12.5577 122.831C21.4596 131.189 31.9326 135.411 43.7375 135.411C45.0174 135.411 46.3131 135.361 47.6249 135.261C53.3009 134.83 59.8604 133.799 65.4649 129.42C68.0063 127.433 70.6166 125.444 73.1402 123.521C77.4622 120.228 81.9299 116.826 86.2013 113.318C91.5032 109.038 97.5796 105.819 104.1 103.838C106.287 103.221 108.367 102.27 110.265 101.02C111.522 100.146 112.555 98.9865 113.277 97.6364C114 96.2863 114.393 94.784 114.423 93.2527C114.434 91.6953 114.075 90.1575 113.376 88.766C112.677 87.3739 111.658 86.1676 110.403 85.2461ZM6.50092 93.7785C6.67286 92.494 6.82303 91.2043 6.97333 89.9153C7.28483 86.7832 7.75575 83.6695 8.38439 80.5854C10.4053 71.5076 12.7098 64.3082 15.6377 57.9214C17.249 54.3717 19.5872 51.1995 22.5011 48.61C24.2266 47.0813 26.0045 46.4913 27.5095 46.9494C29.0283 47.4128 30.1881 48.9184 30.7748 51.1848C31.0683 52.4413 31.2748 53.7165 31.393 55.0014C31.4495 55.4898 31.5053 55.9781 31.5716 56.4644C31.7626 57.8841 32.2028 59.389 34.0229 59.7848C35.6519 60.1379 36.911 59.4212 37.8679 57.5906C38.1633 57.0268 38.45 56.4571 38.7355 55.8841C39.2934 54.773 39.8704 53.6244 40.5077 52.5447C40.999 51.7069 41.6608 50.9818 42.4505 50.4164C43.2402 49.851 44.1401 49.4581 45.0915 49.263C47.1564 48.7826 48.8688 49.0005 50.0423 49.8997C51.1915 50.7772 51.84 52.3202 51.9161 54.3628C51.9318 55.6134 51.8591 56.8635 51.6988 58.1039C51.6555 58.518 51.6116 58.9315 51.5742 59.3444C51.5427 59.6955 51.4777 60.0421 51.4088 60.409C51.3219 60.827 51.2599 61.2497 51.2236 61.675C51.1612 62.3417 51.3381 63.0088 51.7222 63.5572C52.1063 64.1056 52.6729 64.4996 53.3208 64.6687C53.9686 64.8378 54.6555 64.7711 55.2587 64.4805C55.8619 64.1899 56.3419 63.6943 56.6133 63.0823C56.8496 62.5513 57.0557 61.9979 57.2552 61.463C57.5663 60.5388 57.9643 59.6461 58.4439 58.797C59.275 57.2708 60.3724 55.9055 61.6843 54.7658C62.0993 54.4057 62.5966 54.153 63.1322 54.03C63.6677 53.9069 64.2254 53.9174 64.756 54.0602C65.2622 54.2438 65.7154 54.5489 66.076 54.9488C66.437 55.3486 66.6936 55.831 66.8243 56.3534C67.2942 58.0843 67.5817 59.8595 67.6821 61.6501C67.73 62.1752 67.7779 62.695 67.8344 63.2129C67.8606 63.6186 67.8455 64.026 67.7878 64.4284C67.6755 65.0434 67.6998 65.6756 67.8606 66.2799C68.2301 67.3353 69.0604 68.5994 70.0127 68.8816C70.9651 69.1638 72.266 68.4832 73.1973 67.8643C73.702 67.4416 74.0801 66.887 74.2908 66.2628C74.3689 66.0902 74.4463 65.9196 74.527 65.7588C75.9631 62.933 77.3926 60.1042 78.8169 57.2723C81.9325 51.0929 85.1538 44.7028 88.4138 38.4657C90.2923 34.9065 92.3899 31.4672 94.695 28.1677C95.9263 26.4757 97.426 24.9957 99.1338 23.7859C100.234 22.9727 101.344 22.7405 102.178 23.1454C103.035 23.5609 103.552 24.6143 103.596 26.0333C103.6 27.5596 103.319 29.0731 102.768 30.4963C102.343 31.6638 101.921 32.8336 101.503 34.0058C99.8663 38.5673 98.1736 43.2838 96.1639 47.7601C92.554 55.7943 88.7591 63.906 85.0882 71.7511C82.9229 76.3776 80.7662 81.0074 78.6173 85.6405C77.8645 87.0595 77.4143 88.6197 77.2948 90.2218C77.2856 91.3441 78.2846 92.7355 79.2153 93.3807C80.331 94.1539 81.7927 93.7962 82.9433 92.4743C83.1914 92.1895 83.4093 91.8836 83.6206 91.5863C83.7972 91.3382 83.9731 91.0908 84.166 90.8578C86.4179 88.1372 90.5469 86.3067 95.2109 85.9615C99.7225 85.6274 103.907 86.7675 106.407 89.0108C107.645 90.1266 108.235 91.2233 108.113 92.1928C107.991 93.1622 107.194 94.0253 105.75 94.7748C104.873 95.227 103.949 95.5795 102.994 95.8249C95.2398 97.8366 88.0784 101.682 81.1009 107.581C76.8754 111.154 72.3119 114.97 67.5692 118.673C64.7903 120.839 61.7672 122.805 58.8438 124.703L58.7349 124.773C55.7663 126.702 52.2475 126.987 48.8443 127.262L48.5261 127.287C34.0867 128.462 22.1681 123.446 13.114 112.382C8.56883 106.826 6.56369 100.692 7.15376 94.148L7.18677 93.7831L6.50092 93.7785Z" fill="black"/>
<path d="M34.3109 30.0876C34.955 30.0726 35.5825 29.8792 36.1232 29.529C37.3714 28.7506 38.5595 27.8796 39.6774 26.9233C48.3889 19.6071 58.3174 15.6553 69.1949 15.1749C69.655 15.1781 70.1138 15.2296 70.5634 15.3285L70.6664 15.3469C70.3744 15.5274 70.0934 15.6993 69.8204 15.8654C68.7794 16.5 67.8803 17.0468 67.0323 17.6894C65.6005 18.7684 64.6214 20.2202 64.5381 21.3872C64.5101 21.6199 64.5337 21.8558 64.607 22.0785C64.6802 22.3011 64.8014 22.5049 64.9621 22.6755C66.2053 23.9311 68.0509 24.1071 70.0252 23.1587L71.0668 22.6592C74.3905 21.165 77.6033 19.4342 80.6795 17.48C82.4654 16.2822 83.4099 14.8671 83.4118 13.387C83.4118 11.8053 82.3558 10.2564 80.352 8.90694C77.2219 6.79942 73.8923 4.52384 69.5559 1.52897C68.6035 0.872632 67.1655 -0.121059 65.8345 1.32026C64.8433 2.39337 64.9698 3.66016 66.2112 5.08507C67.0756 6.07614 67.9984 7.03375 68.975 8.04845C69.3091 8.39499 69.6524 8.75132 70.0048 9.12149C69.9805 9.13331 69.9556 9.14361 69.9307 9.15234C69.4922 9.18188 69.0525 9.2101 68.6127 9.2101H68.6088C56.922 9.2101 46.0963 13.3568 35.5089 21.886C34.3041 22.9251 33.2185 24.0952 32.2724 25.3744C31.2558 26.6641 31.2677 28.0904 32.3054 29.1891C32.5586 29.4705 32.8675 29.6958 33.213 29.8505C33.5585 30.0052 33.9324 30.086 34.3109 30.0876Z" fill="black"/>
</g>
<defs>
<clipPath id="clip0">
<rect width="114.859" height="135.206" fill="white" transform="translate(0.09375 0.447266)"/>
</clipPath>
</defs>
</svg>

<svg xmlns="http://www.w3.org/2000/svg" width="115" height="136" fill="none" viewBox="0 0 115 136"><g fill="#000" clip-path="url(#a)"><path d="M110.403 85.246a20 20 0 0 0-4.764-2.629c-6.075-2.362-11.755-2.784-17.368-1.29a5.3 5.3 0 0 1-1.05.117l-.329.018c.445-.857.88-1.684 1.307-2.494 1.08-2.048 2.1-3.983 3.023-5.962l1.346-2.88c5.353-11.458 10.89-23.308 15.081-35.496 1.195-3.474 1.695-6.41 1.531-8.974-.21-3.271-1.793-5.88-4.346-7.159-2.594-1.299-5.82-.978-8.63.857a15.1 15.1 0 0 0-3.943 3.297l-.888 1.172a113 113 0 0 0-7.81 11.216c-2.454 4.212-4.711 8.629-6.892 12.9-1.05 2.054-2.1 4.108-3.174 6.149-.16.256-.357.487-.585.684l-.091.09c-4.665-6.498-7.722-7.216-15.694-3.734-1.427-3.854-4.34-6.194-8.664-6.96-4.195-.745-7.931.361-11.41 3.38l-.197-.2a3.6 3.6 0 0 1-.432-.48c-2.554-3.74-6.022-5.913-9.765-6.115-3.654-.193-7.207 1.52-10.03 4.83a44.7 44.7 0 0 0-5.876 9.057c-4.227 8.466-6.532 17.73-8.566 25.9a58.1 58.1 0 0 0-1.46 17.81c.574 9.412 4.555 17.647 11.83 24.481 8.903 8.358 19.376 12.58 31.18 12.58q1.92 0 3.888-.15c5.676-.431 12.235-1.462 17.84-5.841 2.541-1.987 5.152-3.976 7.675-5.899 4.322-3.293 8.79-6.695 13.061-10.203a53 53 0 0 1 17.899-9.48 22.1 22.1 0 0 0 6.165-2.818 9.69 9.69 0 0 0 4.158-7.767 9.84 9.84 0 0 0-4.02-8.007M6.501 93.778c.172-1.284.322-2.574.472-3.863a93 93 0 0 1 1.411-9.33c2.021-9.077 4.326-16.277 7.254-22.664A27.9 27.9 0 0 1 22.5 48.61c1.726-1.529 3.503-2.119 5.008-1.66 1.52.463 2.68 1.968 3.266 4.235.293 1.256.5 2.532.618 3.816.056.489.112.977.179 1.463.19 1.42.63 2.925 2.45 3.32 1.63.354 2.889-.363 3.846-2.193q.441-.847.867-1.707c.558-1.111 1.135-2.26 1.773-3.34a6.93 6.93 0 0 1 4.584-3.281c2.064-.48 3.777-.262 4.95.637 1.15.877 1.798 2.42 1.874 4.463.016 1.25-.057 2.5-.217 3.74q-.066.622-.125 1.241c-.031.352-.096.698-.165 1.065q-.132.627-.185 1.266a2.823 2.823 0 0 0 5.39 1.407c.236-.53.442-1.084.641-1.619a15.4 15.4 0 0 1 1.189-2.666 14.6 14.6 0 0 1 3.24-4.031 3.36 3.36 0 0 1 3.072-.706 3.29 3.29 0 0 1 2.068 2.293c.47 1.731.758 3.506.858 5.297q.07.787.152 1.563a6 6 0 0 1-.046 1.215 4.2 4.2 0 0 0 .073 1.852c.37 1.055 1.2 2.32 2.152 2.602s2.253-.399 3.184-1.018a3.6 3.6 0 0 0 1.094-1.601q.116-.261.236-.504 2.154-4.239 4.29-8.487c3.116-6.18 6.337-12.57 9.597-18.806a97 97 0 0 1 6.281-10.298 19.3 19.3 0 0 1 4.439-4.382c1.1-.813 2.21-1.046 3.044-.64.857.415 1.374 1.468 1.418 2.887a12.3 12.3 0 0 1-.828 4.463 567 567 0 0 0-1.265 3.51c-1.637 4.561-3.33 9.278-5.34 13.754-3.609 8.034-7.404 16.146-11.075 23.991a4433 4433 0 0 0-6.47 13.89 11.6 11.6 0 0 0-1.323 4.58c-.01 1.123.99 2.514 1.92 3.16 1.116.773 2.578.415 3.728-.907.248-.285.466-.59.678-.888.176-.248.352-.495.545-.728 2.252-2.72 6.38-4.551 11.045-4.897 4.511-.334 8.696.806 11.196 3.05 1.238 1.116 1.828 2.212 1.706 3.182s-.919 1.832-2.363 2.582a13.2 13.2 0 0 1-2.756 1.05c-7.754 2.012-14.916 5.857-21.893 11.756-4.226 3.573-8.79 7.389-13.532 11.092-2.779 2.166-5.802 4.132-8.725 6.03l-.11.07c-2.968 1.929-6.486 2.214-9.89 2.489l-.318.025c-14.44 1.175-26.358-3.841-35.412-14.905-4.545-5.556-6.55-11.69-5.96-18.234l.033-.365zm27.809-63.69a3.5 3.5 0 0 0 1.813-.559 29.4 29.4 0 0 0 3.554-2.606c8.712-7.316 18.64-11.268 29.518-11.748.46.003.919.055 1.368.153l.103.019q-.437.27-.846.518c-1.04.635-1.94 1.182-2.788 1.824-1.431 1.08-2.41 2.531-2.494 3.698a1.6 1.6 0 0 0 .424 1.288c1.243 1.256 3.089 1.432 5.063.484l1.042-.5a76 76 0 0 0 9.613-5.179c1.785-1.198 2.73-2.613 2.732-4.093 0-1.582-1.056-3.13-3.06-4.48-3.13-2.108-6.46-4.383-10.796-7.378-.953-.656-2.39-1.65-3.721-.209-.992 1.073-.865 2.34.376 3.765.865.991 1.787 1.949 2.764 2.963l1.03 1.073-.074.031c-.439.03-.879.058-1.318.058h-.004c-11.687 0-22.513 4.147-33.1 12.676a21.5 21.5 0 0 0-3.237 3.488c-1.016 1.29-1.004 2.716.033 3.815a2.7 2.7 0 0 0 2.006.899"/></g><defs><clipPath id="a"><path fill="#fff" d="M.094.447h114.859v135.206H.093z"/></clipPath></defs></svg>
